launcher/android/assets/skins/day/svg/big16icon.svg

<svg enable-background="new 0 0 257.00 257.00" height="257" viewBox="0 0 257 257" width="257" xmlns="http://www.w3.org/2000/svg" xmlns:xlink="http://www.w3.org/1999/xlink"><linearGradient id="a"><stop offset=".0186047" stop-color="#e3d191"/><stop offset=".55814" stop-color="#e2af00"/><stop offset=".787252" stop-color="#ab7800"/><stop offset="1" stop-color="#744100"/></linearGradient><linearGradient id="b" gradientUnits="objectBoundingBox" x1="0" x2="1" xlink:href="#a" y1=".500003" y2=".500003"/><linearGradient id="c" gradientTransform="matrix(.962736142597 .270442451804 -.270442451804 .962736142597 .108360057932 -.022423139929)" gradientUnits="objectBoundingBox" x1=".135548" x2="1.08855" y1=".382" y2=".382"><stop offset=".0186047" stop-color="#cebe83"/><stop offset=".55814" stop-color="#c79c07"/><stop offset=".787252" stop-color="#8f6604"/><stop offset="1" stop-color="#573101"/></linearGradient><linearGradient id="d" gradientTransform="matrix(.965921299862 .258835937366 -.258835937366 .965921299862 .099965742336 -.01810189556)" gradientUnits="objectBoundingBox" x1=".118727" x2="1.11874" xlink:href="#a" y1=".370581" y2=".370581"/><linearGradient id="e"><stop offset=".0186047" stop-color="#d7b77e"/><stop offset=".55814" stop-color="#d4b780"/><stop offset=".787252" stop-color="#d7bc89"/><stop offset="1" stop-color="#dbc292"/></linearGradient><linearGradient id="f" gradientUnits="objectBoundingBox" x1="0" x2="1" xlink:href="#e" y1=".5" y2=".5"/><linearGradient id="g" gradientUnits="objectBoundingBox" x1="-.0142857" x2="1.01429" xlink:href="#e" y1=".5" y2=".5"/><linearGradient id="h"><stop offset=".0186047" stop-color="#e5d5b4"/><stop offset="1" stop-color="#efe4d0"/></linearGradient><linearGradient id="i" gradientUnits="objectBoundingBox" x1="0" x2="1" xlink:href="#h" y1=".485325" y2=".485325"/><linearGradient id="j" gradientUnits="objectBoundingBox" x1="-.0168539" x2="1.01685" xlink:href="#h" y1=".484027" y2=".484027"/><linearGradient id="k" gradientUnits="objectBoundingBox" x1="0" x2="1" xlink:href="#h" y1=".5" y2=".5"/><linearGradient id="l" gradientUnits="objectBoundingBox" x1="-.03125" x2="1.03125" xlink:href="#h" y1=".5" y2=".5"/><linearGradient id="m"><stop offset=".0186047" stop-color="#d9bf8d"/><stop offset="1" stop-color="#d7b77e"/></linearGradient><linearGradient id="n" gradientUnits="objectBoundingBox" x1=".0473922" x2="1" xlink:href="#m" y1=".48513" y2=".48513"/><linearGradient id="o" gradientUnits="objectBoundingBox" x1=".0272265" x2="1.02228" xlink:href="#m" y1=".484615" y2=".484615"/><linearGradient id="p"><stop offset=".0186047" stop-color="#e7d7b9"/><stop offset="1" stop-color="#eee2cd"/></linearGradient><linearGradient id="q" gradientUnits="objectBoundingBox" x1="0" x2="1" xlink:href="#p" y1=".484211" y2=".484211"/><linearGradient id="r" gradientUnits="objectBoundingBox" x1="-.0199115" x2="1.01991" xlink:href="#p" y1=".483146" y2=".483146"/><linearGradient id="s" gradientUnits="objectBoundingBox" x1="0" x2="1" xlink:href="#p" y1=".5" y2=".5"/><linearGradient id="t" gradientUnits="objectBoundingBox" x1="-.0330882" x2="1.03309" xlink:href="#p" y1=".5" y2=".5"/><g stroke-linejoin="round"><path d="m101.726 23.849h18c12.703 0 23 10.2976 23 23v160.5c0 12.703-10.297 23.001-23 23.001h-18c-12.702 0-22.9996-10.298-22.9996-23.001v-160.5c0-12.7024 10.2976-23 22.9996-23z" fill="url(#b)" stroke-width=".2"/><g stroke-width="3"><path d="m111.226 23.8499c17.949 0 32.5 6.9402 32.5 15.5005 0 8.5606-14.55 15.5003-32.5 15.5003-17.949 0-32.4996-6.9397-32.4996-15.5003 0-8.5603 14.5513-15.5005 32.4996-15.5005z" fill="url(#d)" stroke="url(#c)"/><path d="m122.226 66.8499v60.0001l75 14 30-17-27.5-37.0001z" fill="url(#g)" stroke="url(#f)"/><path d="m122.726 64.8499 5.626-1.1665 8.5-3.75 5-4.5 2.5-4.5 67.374 14.9165-14 19z" fill="url(#j)" stroke="url(#i)"/><path d="m211.726 65.8499 33 42.0001-17 17-31-40.0001z" fill="url(#l)" stroke="url(#k)"/><path d="m106.06 67.5167-45.3336 34.0003-21.9998 50.666 32.6666 2 34.6668-30z" fill="url(#o)" stroke="url(#n)"/><path d="m60.0599 101.517-28.6667-10.6671 46-33.3332.7085-.5 4.25 5 9.0415 3.5 15.3328.6667z" fill="url(#r)" stroke="url(#q)"/><path d="m31.3932 90.8499-16.6666 45.3331 23.3332 16 22.0001-49.333z" fill="url(#t)" stroke="url(#s)"/></g></g></svg>

﻿<?xml version="1.0" encoding="utf-8"?>
<!DOCTYPE svg PUBLIC "-//W3C//DTD SVG 1.1//EN" "http://www.w3.org/Graphics/SVG/1.1/DTD/svg11.dtd">
<svg xmlns="http://www.w3.org/2000/svg" xmlns:xlink="http://www.w3.org/1999/xlink" version="1.1" baseProfile="full" width="257" height="257" viewBox="0 0 257.00 257.00" enable-background="new 0 0 257.00 257.00" xml:space="preserve">
	<g>
		<linearGradient id="SVGID_Fill1_" gradientUnits="objectBoundingBox" x1="0" y1="0.500003" x2="1" y2="0.500003">
			<stop offset="0.0186047" stop-color="#E3D191" stop-opacity="1"/>
			<stop offset="0.55814" stop-color="#E2AF00" stop-opacity="1"/>
			<stop offset="0.787252" stop-color="#AB7800" stop-opacity="1"/>
			<stop offset="1" stop-color="#744100" stop-opacity="1"/>
		</linearGradient>
		<path fill="url(#SVGID_Fill1_)" stroke-width="0.2" stroke-linejoin="round" d="M 101.726,23.849L 119.726,23.849C 132.429,23.849 142.726,34.1466 142.726,46.849L 142.726,207.349C 142.726,220.052 132.429,230.35 119.726,230.35L 101.726,230.35C 89.024,230.35 78.7264,220.052 78.7264,207.349L 78.7264,46.849C 78.7264,34.1466 89.024,23.849 101.726,23.849 Z "/>
		<linearGradient id="SVGID_Stroke1_" gradientUnits="objectBoundingBox" x1="0.135548" y1="0.382" x2="1.08855" y2="0.382" gradientTransform="rotate(15.690597 0.135548 0.382000)">
			<stop offset="0.0186047" stop-color="#CEBE83" stop-opacity="1"/>
			<stop offset="0.55814" stop-color="#C79C07" stop-opacity="1"/>
			<stop offset="0.787252" stop-color="#8F6604" stop-opacity="1"/>
			<stop offset="1" stop-color="#573101" stop-opacity="1"/>
		</linearGradient>
		<linearGradient id="SVGID_Fill2_" gradientUnits="objectBoundingBox" x1="0.118727" y1="0.370581" x2="1.11874" y2="0.370581" gradientTransform="rotate(15.001002 0.118727 0.370581)">
			<stop offset="0.0186047" stop-color="#E3D191" stop-opacity="1"/>
			<stop offset="0.55814" stop-color="#E2AF00" stop-opacity="1"/>
			<stop offset="0.787252" stop-color="#AB7800" stop-opacity="1"/>
			<stop offset="1" stop-color="#744100" stop-opacity="1"/>
		</linearGradient>
		<path fill="url(#SVGID_Fill2_)" stroke-width="3" stroke-linejoin="round" stroke="url(#SVGID_Stroke1_)" d="M 111.226,23.8499C 129.175,23.8499 143.726,30.7901 143.726,39.3504C 143.726,47.911 129.176,54.8507 111.226,54.8507C 93.277,54.8507 78.7264,47.911 78.7264,39.3504C 78.7264,30.7901 93.2777,23.8499 111.226,23.8499 Z "/>
		<linearGradient id="SVGID_Stroke2_" gradientUnits="objectBoundingBox" x1="0" y1="0.5" x2="1" y2="0.5">
			<stop offset="0.0186047" stop-color="#D7B77E" stop-opacity="1"/>
			<stop offset="0.55814" stop-color="#D4B780" stop-opacity="1"/>
			<stop offset="0.787252" stop-color="#D7BC89" stop-opacity="1"/>
			<stop offset="1" stop-color="#DBC292" stop-opacity="1"/>
		</linearGradient>
		<linearGradient id="SVGID_Fill3_" gradientUnits="objectBoundingBox" x1="-0.0142857" y1="0.5" x2="1.01429" y2="0.5">
			<stop offset="0.0186047" stop-color="#D7B77E" stop-opacity="1"/>
			<stop offset="0.55814" stop-color="#D4B780" stop-opacity="1"/>
			<stop offset="0.787252" stop-color="#D7BC89" stop-opacity="1"/>
			<stop offset="1" stop-color="#DBC292" stop-opacity="1"/>
		</linearGradient>
		<path fill="url(#SVGID_Fill3_)" stroke-width="3" stroke-linejoin="round" stroke="url(#SVGID_Stroke2_)" d="M 122.226,66.8499L 122.226,126.85L 197.226,140.85L 227.226,123.85L 199.726,86.8499L 122.226,66.8499 Z "/>
		<linearGradient id="SVGID_Stroke3_" gradientUnits="objectBoundingBox" x1="0" y1="0.485325" x2="1" y2="0.485325">
			<stop offset="0.0186047" stop-color="#E5D5B4" stop-opacity="1"/>
			<stop offset="1" stop-color="#EFE4D0" stop-opacity="1"/>
		</linearGradient>
		<linearGradient id="SVGID_Fill4_" gradientUnits="objectBoundingBox" x1="-0.0168539" y1="0.484027" x2="1.01685" y2="0.484027">
			<stop offset="0.0186047" stop-color="#E5D5B4" stop-opacity="1"/>
			<stop offset="1" stop-color="#EFE4D0" stop-opacity="1"/>
		</linearGradient>
		<path fill="url(#SVGID_Fill4_)" stroke-width="3" stroke-linejoin="round" stroke="url(#SVGID_Stroke3_)" d="M 122.726,64.8499L 128.352,63.6834L 136.852,59.9334L 141.852,55.4334L 144.352,50.9334L 211.726,65.8499L 197.726,84.8499L 122.726,64.8499 Z "/>
		<linearGradient id="SVGID_Stroke4_" gradientUnits="objectBoundingBox" x1="0" y1="0.5" x2="1" y2="0.5">
			<stop offset="0.0186047" stop-color="#E5D5B4" stop-opacity="1"/>
			<stop offset="1" stop-color="#EFE4D0" stop-opacity="1"/>
		</linearGradient>
		<linearGradient id="SVGID_Fill5_" gradientUnits="objectBoundingBox" x1="-0.03125" y1="0.5" x2="1.03125" y2="0.5">
			<stop offset="0.0186047" stop-color="#E5D5B4" stop-opacity="1"/>
			<stop offset="1" stop-color="#EFE4D0" stop-opacity="1"/>
		</linearGradient>
		<path fill="url(#SVGID_Fill5_)" stroke-width="3" stroke-linejoin="round" stroke="url(#SVGID_Stroke4_)" d="M 211.726,65.8499L 244.726,107.85L 227.726,124.85L 196.726,84.8499L 211.726,65.8499 Z "/>
		<linearGradient id="SVGID_Stroke5_" gradientUnits="objectBoundingBox" x1="0.0473922" y1="0.48513" x2="1" y2="0.48513">
			<stop offset="0.0186047" stop-color="#D9BF8D" stop-opacity="1"/>
			<stop offset="1" stop-color="#D7B77E" stop-opacity="1"/>
		</linearGradient>
		<linearGradient id="SVGID_Fill6_" gradientUnits="objectBoundingBox" x1="0.0272265" y1="0.484615" x2="1.02228" y2="0.484615">
			<stop offset="0.0186047" stop-color="#D9BF8D" stop-opacity="1"/>
			<stop offset="1" stop-color="#D7B77E" stop-opacity="1"/>
		</linearGradient>
		<path fill="url(#SVGID_Fill6_)" stroke-width="3" stroke-linejoin="round" stroke="url(#SVGID_Stroke5_)" d="M 106.06,67.5167L 60.7264,101.517L 38.7266,152.183L 71.3932,154.183L 106.06,124.183L 106.06,67.5167 Z "/>
		<linearGradient id="SVGID_Stroke6_" gradientUnits="objectBoundingBox" x1="0" y1="0.484211" x2="1" y2="0.484211">
			<stop offset="0.0186047" stop-color="#E7D7B9" stop-opacity="1"/>
			<stop offset="1" stop-color="#EEE2CD" stop-opacity="1"/>
		</linearGradient>
		<linearGradient id="SVGID_Fill7_" gradientUnits="objectBoundingBox" x1="-0.0199115" y1="0.483146" x2="1.01991" y2="0.483146">
			<stop offset="0.0186047" stop-color="#E7D7B9" stop-opacity="1"/>
			<stop offset="1" stop-color="#EEE2CD" stop-opacity="1"/>
		</linearGradient>
		<path fill="url(#SVGID_Fill7_)" stroke-width="3" stroke-linejoin="round" stroke="url(#SVGID_Stroke6_)" d="M 60.0599,101.517L 31.3932,90.8499L 77.3932,57.5167L 78.1017,57.0167L 82.3517,62.0167L 91.3932,65.5167L 106.726,66.1834L 60.0599,101.517 Z "/>
		<linearGradient id="SVGID_Stroke7_" gradientUnits="objectBoundingBox" x1="0" y1="0.5" x2="1" y2="0.5">
			<stop offset="0.0186047" stop-color="#E7D7B9" stop-opacity="1"/>
			<stop offset="1" stop-color="#EEE2CD" stop-opacity="1"/>
		</linearGradient>
		<linearGradient id="SVGID_Fill8_" gradientUnits="objectBoundingBox" x1="-0.0330882" y1="0.5" x2="1.03309" y2="0.5">
			<stop offset="0.0186047" stop-color="#E7D7B9" stop-opacity="1"/>
			<stop offset="1" stop-color="#EEE2CD" stop-opacity="1"/>
		</linearGradient>
		<path fill="url(#SVGID_Fill8_)" stroke-width="3" stroke-linejoin="round" stroke="url(#SVGID_Stroke7_)" d="M 31.3932,90.8499L 14.7266,136.183L 38.0598,152.183L 60.0599,102.85L 31.3932,90.8499 Z "/>
	</g>
</svg>
